svg/part/skirt_line.svg

<?xml version="1.0" encoding="UTF-8"?>
<svg width="24px" height="24px" viewBox="0 0 24 24" version="1.1" xmlns="http://www.w3.org/2000/svg" xmlns:xlink="http://www.w3.org/1999/xlink">
    <title>skirt_line</title>
    <g id="Icon" stroke="none" stroke-width="1" fill="none" fill-rule="evenodd">
        <g id="Part" transform="translate(-624.000000, -96.000000)">
            <g id="skirt_line" transform="translate(624.000000, 96.000000)">
                <path d="M24,0 L24,24 L0,24 L0,0 L24,0 Z M12.5934901,23.257841 L12.5819402,23.2595131 L12.5108777,23.2950439 L12.4918791,23.2987469 L12.4918791,23.2987469 L12.4767152,23.2950439 L12.4056548,23.2595131 C12.3958229,23.2563662 12.3870493,23.2590235 12.3821421,23.2649074 L12.3780323,23.275831 L12.360941,23.7031097 L12.3658947,23.7234994 L12.3769048,23.7357139 L12.4804777,23.8096931 L12.4953491,23.8136134 L12.4953491,23.8136134 L12.5071152,23.8096931 L12.6106902,23.7357139 L12.6232938,23.7196733 L12.6232938,23.7196733 L12.6266527,23.7031097 L12.609561,23.275831 C12.6075724,23.2657013 12.6010112,23.2592993 12.5934901,23.257841 L12.5934901,23.257841 Z M12.8583906,23.1452862 L12.8445485,23.1473072 L12.6598443,23.2396597 L12.6498822,23.2499052 L12.6498822,23.2499052 L12.6471943,23.2611114 L12.6650943,23.6906389 L12.6699349,23.7034178 L12.6699349,23.7034178 L12.678386,23.7104931 L12.8793402,23.8032389 C12.8914285,23.8068999 12.9022333,23.8029875 12.9078286,23.7952264 L12.9118235,23.7811639 L12.8776777,23.1665331 C12.8752882,23.1545897 12.8674102,23.1470016 12.8583906,23.1452862 L12.8583906,23.1452862 Z M12.1430473,23.1473072 C12.1332178,23.1423925 12.1221763,23.1452606 12.1156365,23.1525954 L12.1099173,23.1665331 L12.0757714,23.7811639 C12.0751323,23.7926639 12.0828099,23.8018602 12.0926481,23.8045676 L12.108256,23.8032389 L12.3092106,23.7104931 L12.3186497,23.7024347 L12.3186497,23.7024347 L12.3225043,23.6906389 L12.340401,23.2611114 L12.337245,23.2485176 L12.337245,23.2485176 L12.3277531,23.2396597 L12.1430473,23.1473072 Z" id="MingCute" fill-rule="nonzero"></path>
                <path d="M16.5072,2.13815 C16.8999,2.36924 17.0867,2.8366 16.9616,3.27474 L15.1472,9.62485 C15.7972,10.1971 16.3383,10.9179 16.785,11.668 C17.7554308,13.2970462 18.4132367,15.1569183 18.7963284,17.0199956 L18.950803,17.8294821 C19.0494,18.3639198 19.134,18.9683182 18.8946,19.4472 C18.5866,20.0632 17.8430444,20.306 17.1166444,20.4292593 L16.75697,20.4821015 L16.75697,20.4821015 L16.0965,20.5562 L16.0965,20.5562 C14.9378,20.6868 13.4604,20.75 12.0001,20.75 C10.7020556,20.75 9.3905079,20.7000642 8.30131416,20.597313 L7.24242171,20.4845798 C6.41786012,20.3842235 5.47394556,20.1839111 5.10566,19.4472 C4.89712182,19.0300364 4.93882893,18.4987835 5.01884563,18.0097725 L5.11385,17.4857 L5.11385,17.4857 C5.47961,15.4685 6.16399,13.4328 7.21521,11.668 C7.66194,10.918 8.20302,10.1972 8.85287,9.62498 L7.03851,3.27474 C6.91333,2.8366 7.10017,2.36924 7.49291,2.13815 C7.88513,1.90737 8.38364,1.97054 8.70589,2.29167 C9.03947,2.62083 9.41532,2.90836 9.80474,3.16797 C10.5049,3.63477 11.3006,4.00002 12,4.00002 C12.6995,4.00002 13.4951,3.63477 14.1953,3.16797 C14.486225,2.9740425 14.7700625,2.76212625 15.0348313,2.53082906 L15.2928,2.29302 C15.615,1.97109 16.1146,1.90714 16.5072,2.13815 Z M12.0001,10.5 C11.3621,10.5 10.8315,10.6476 10.5548,10.8321 C9.9758,11.2181 9.42764,11.8619 8.93349,12.6915 C8.00447,14.2512 7.4049,16.0604 7.08176,17.8425 C6.98944,18.3516333 7.16639556,18.4688111 7.50707111,18.5143 L7.69056354,18.5325531 L7.69056354,18.5325531 L8.01055072,18.5569906 L8.01055072,18.5569906 L8.12768,18.5688 C9.18776,18.6883 10.5854,18.75 12.0001,18.75 C13.2576111,18.75 14.5016111,18.7012494 15.5070728,18.6064872 L15.9896287,18.5569906 L15.9896287,18.5569906 L16.4046043,18.524364 C16.802463,18.4856188 17.0185278,18.3940611 16.9185,17.8425 C16.5954,16.0604 15.9958,14.2511 15.0668,12.6915 C14.5726,11.8619 14.0245,11.2181 13.4454,10.8321 C13.1687,10.6476 12.6381,10.5 12.0001,10.5 Z M14.2662,5.42846 C13.6004,5.74816 12.8193,6.00002 12,6.00002 C11.1808,6.00002 10.3997,5.74816 9.73389,5.42846 L10.6562,8.65672 C11.1012,8.54749 11.5644,8.50003 12.0001,8.50002 C12.4358,8.50002 12.8989,8.54747 13.3438,8.65667 L14.2662,5.42846 Z" id="形状" fill="#09244B"></path>
            </g>
        </g>
    </g>
</svg>

<svg xmlns="http://www.w3.org/2000/svg" width="24" height="24"><g fill="none" fill-rule="evenodd"><path d="M24 0v24H0V0h24ZM12.593 23.258l-.011.002-.071.035-.02.004-.014-.004-.071-.035c-.01-.004-.019-.001-.024.005l-.004.01-.017.428.005.02.01.013.104.074.015.004.012-.004.104-.074.012-.016.004-.017-.017-.427c-.002-.01-.009-.017-.017-.018Zm.265-.113-.013.002-.185.093-.01.01-.003.011.018.43.005.012.008.007.201.093c.012.004.023 0 .029-.008l.004-.014-.034-.614c-.003-.012-.01-.02-.02-.022Zm-.715.002a.023.023 0 0 0-.027.006l-.006.014-.034.614c0 .012.007.02.017.024l.015-.002.201-.093.01-.008.004-.011.017-.43-.003-.012-.01-.01-.184-.092Z"/><path fill="#09244B" d="M16.507 2.138a1 1 0 0 1 .455 1.137l-1.815 6.35c.65.572 1.191 1.293 1.638 2.043.97 1.629 1.628 3.489 2.011 5.352l.155.81c.098.534.183 1.138-.056 1.617-.308.616-1.052.859-1.778.982l-.36.053-.66.074c-1.16.13-2.637.194-4.097.194-1.298 0-2.61-.05-3.699-.153l-1.059-.112c-.824-.1-1.768-.301-2.136-1.038-.209-.417-.167-.948-.087-1.437l.095-.524c.366-2.017 1.05-4.053 2.101-5.818.447-.75.988-1.47 1.638-2.043l-1.814-6.35a1 1 0 0 1 1.667-.983 7.4 7.4 0 0 0 1.099.876C10.505 3.635 11.3 4 12 4c.7 0 1.495-.365 2.195-.832.291-.194.575-.406.84-.637l.258-.238a1 1 0 0 1 1.214-.155ZM12 10.5c-.638 0-1.168.148-1.445.332-.58.386-1.127 1.03-1.622 1.86-.929 1.56-1.528 3.368-1.851 5.15-.093.51.084.627.425.672l.184.019.32.024.117.012c1.06.12 2.457.181 3.872.181 1.258 0 2.502-.049 3.507-.144l.483-.049.415-.033c.397-.038.614-.13.514-.681-.324-1.783-.923-3.592-1.852-5.151-.494-.83-1.043-1.474-1.622-1.86-.276-.184-.807-.332-1.445-.332Zm2.266-5.072C13.6 5.748 12.82 6 12 6c-.82 0-1.6-.252-2.266-.572l.922 3.229A5.7 5.7 0 0 1 12 8.5a5.7 5.7 0 0 1 1.344.157l.922-3.229Z"/></g></svg>
